images/icons/gitlab.svg

<svg fill="none" height="24" viewBox="0 0 24 24" width="24" xmlns="http://www.w3.org/2000/svg"><path d="m11.9992 23.105 4.4214-13.60012h-8.83637z" fill="#e24329"/><path d="m1.39128 9.505-1.3464229 4.1319c-.1218395.3752.0097389.7893.3313269 1.0232l11.623016 8.4449z" fill="#fca326"/><path d="m1.39124 9.50498h6.19291l-2.66526-8.1907c-.13641-.419042-.73089-.419042-.87221 0z" fill="#e24329"/><path d="m22.6135 9.505 1.3416 4.1319c.1219.3752-.0097.7893-.3313 1.0232l-11.6247 8.4449z" fill="#fca326"/><path d="m22.6136 9.50498h-6.1929l2.6603-8.1907c.1364-.419042.7309-.419042.8722 0z" fill="#e24329"/><g fill="#fc6d26"><path d="m11.9991 23.105 4.4215-13.6h6.1929z"/><path d="m11.9991 23.105-10.60786-13.6h6.19291z"/></g></svg>

<svg width="24" height="24" viewBox="0 0 24 24" fill="none" xmlns="http://www.w3.org/2000/svg">
<path d="M11.9992 23.105L16.4206 9.50488H7.58423L11.9992 23.105Z" fill="#E24329"/>
<path d="M1.39128 9.505L0.0448571 13.6369C-0.0769824 14.0121 0.054596 14.4262 0.376184 14.6601L11.9992 23.105L1.39128 9.505Z" fill="#FCA326"/>
<path d="M1.39124 9.50498H7.58415L4.91889 1.31428C4.78248 0.895238 4.188 0.895238 4.04668 1.31428L1.39124 9.50498Z" fill="#E24329"/>
<path d="M22.6135 9.505L23.9551 13.6369C24.077 14.0121 23.9454 14.4262 23.6238 14.6601L11.9991 23.105L22.6135 9.505Z" fill="#FCA326"/>
<path d="M22.6136 9.50498H16.4207L19.081 1.31428C19.2174 0.895238 19.8119 0.895238 19.9532 1.31428L22.6136 9.50498Z" fill="#E24329"/>
<path d="M11.9991 23.105L16.4206 9.505H22.6135L11.9991 23.105Z" fill="#FC6D26"/>
<path d="M11.9991 23.105L1.39124 9.505H7.58415L11.9991 23.105Z" fill="#FC6D26"/>
</svg>
